other/mortal_kombat.svg

<?xml version="1.0" encoding="UTF-8"?><svg id="b" xmlns="http://www.w3.org/2000/svg" viewBox="0 0 48 48"><defs><style>.c{fill:none;stroke:#fff;stroke-linecap:round;stroke-linejoin:round;}</style></defs><path class="c" d="m7.1,37.3l1.7-1.6V12.7s-1.9-1.7-1.9-1.7h5.5l5.4,15.6,5.2-15.6h5.4l-1.4,1.6v23l1.7,1.7h-7.7l1.8-1.7v-12.1l-5,13.9-5.1-13.9v12.2l1.7,1.7h-7.2"/><path class="c" d="m27,23.3344l7.8-11.3344-1-1h7.3s-1.9,1-1.9,1l-7.4,11.1,8.9,14.3h-4.6l-6.5-11.3-2.6,3.4667"/><circle class="c" cx="24" cy="24" r="21.5"/></svg>

<?xml version="1.0" encoding="utf-8"?>
<!-- Generator: Adobe Illustrator 27.2.0, SVG Export Plug-In . SVG Version: 6.00 Build 0)  -->
<svg version="1.1" id="Layer_3" xmlns="http://www.w3.org/2000/svg" xmlns:xlink="http://www.w3.org/1999/xlink" x="0px" y="0px"
	 viewBox="0 0 48 48" style="enable-background:new 0 0 48 48;" xml:space="preserve">
<style type="text/css">
	.st0{fill:none;stroke:#FFFFFF;stroke-linecap:round;stroke-linejoin:round;}
</style>
<circle class="st0" cx="24" cy="24" r="21.5"/>
<g>
	<path class="st0" d="M8.8,35.7v-23L6.9,11c-2.7,3.6-4.4,8.1-4.4,13c0,5,1.7,9.7,4.6,13.3L8.8,35.7z"/>
	<path class="st0" d="M24,2.5c-7,0-13.2,3.3-17.1,8.5h5.5l5.4,15.6L23,11h5.4L27,12.6v23l1.7,1.7H21l1.8-1.7V23.5l-5,13.9l-5.1-13.9
		v12.2l1.7,1.7H7.2c3.9,4.9,10,8.1,16.8,8.1c11.9,0,21.5-9.6,21.5-21.5C45.5,12.1,35.9,2.5,24,2.5z"/>
</g>
<g>
	<path class="st0" d="M39.2,12l-7.4,11.1l8.9,14.3c2.9-3.7,4.7-8.3,4.7-13.4c0-4.9-1.7-9.4-4.4-13L39.2,12z"/>
	<path class="st0" d="M36.1,37.4l-6.5-11.3l-1.2,1.6v-6.4l6.4-9.3l-1-1h7.3C37.2,5.8,31,2.5,24,2.5C12.1,2.5,2.5,12.1,2.5,24
		c0,11.9,9.6,21.5,21.5,21.5c6.8,0,12.9-3.2,16.8-8.1H36.1z"/>
</g>
</svg>
